!!!COM: Bach, Johann Sebastian
!!!OPR: Joh. Seb. Bachs vierstimmige Choralgesänge
!!!XEN: Four-part Chorales
!!!OTL: 10. Alle Menschen müssen sterben
!!!SCT: BWV 262
!!!SCA: Thematisch-systematisches Verzeichnis der musikalischen Werke Johann Sebastian Bach: Bach-Werke-Verzeichnis (Schmieder)
!!!YOR: Bach Gesellschaft Edition xxxix
!!!ENC: Steven Rasmussen
!!!CDT: 1685/3//-1750/7/28/
!!!OCY: Deutschland
!!!YEC: Copyright (c) 1994, 2000 Center for Computer Assisted Research in the Humanities
!!!YEM: Rights to all derivative editions reserved
!!!YEN: United States of America
**kern	**silbe	**kern	**kern	**kern
*I:[SOPRANO]	*I:[SOPRANO]	*I:[ALTO]	*I:[TENORE]	*I:[BASSO]
*>[A,A,B]	*	*>[A,A,B]	*>[A,A,B]	*>[A,A,B]
*>A	*	*>A	*>A	*>A
*clefG2	*	*clefG2	*clefGv2	*clefF4
*k[f#c#]	*	*k[f#c#]	*k[f#c#]	*k[f#c#]
*D:	*	*D:	*D:	*D:
*M4/4	*	*M4/4	*M4/4	*M4/4
=1-	=1-	=1-	=1-	=1-
4a/	Al-was	4d/	4F#/	4D\
4dd\	-leda	4d/	8F#/L	4BB/
.	.	.	8G/J	.
4a/	Men-le-	4d/	4A/	4FF#/
4b\	-schen-bet	4d/	8G/L	4GG/
.	.	.	8F#/J	.
=2	=2	=2	=2	=2
4.a/	m\u3s-muss	4d/	8E/L	4AA/
.	.	.	8D/J	.
.	.	4c#/	4E/	4AA/
8g/	-senver-	.	.	.
4f#/	ster--der-	4d/	4D/	4DD/
4f#;/	-ben,-ben,	4d;/	4D;/	4DD;/
=3	=3	=3	=3	=3
4a/	al-soll	4d/	4F#/	4D\
4a/	-leses	8d/L	4F#/	4D\
.	.	8c#/J	.	.
4g/	Fleischan-	8B/L	4G/	4E\
.	.	8c#/J	.	.
4f#/	ver--ders	4d/	4A/	4F#\
=4	=4	=4	=4	=4
4.e/	-gehtwer-	4d/	4B\	8G\L
.	.	.	.	8E\J
.	.	4c#/	8.A/L	8A\L
8d/	wie-den	.	.	8AA\J
.	.	.	16G/Jk	.
2d;/	Heu,neu.	2d;/	2F#;/	2D;\
=5:|!	=5:|!	=5:|!	=5:|!	=5:|!
*>B	*	*>B	*>B	*>B
4e/	Die-	4c#/	4A/	4AA/
4e/	-ser	4c#/	4A/	4AA/
8f#/L	Leib	4d/	4A/	4D\
8g#/J	.	.	.	.
4a/	der	4c#/	4A/	8F#\L
.	.	.	.	8E\J
=6	=6	=6	=6	=6
4.a/	muss	4f#/	4B\	4D\
.	.	8e/L	4B\	4E\
8g#/	ver-	8d/J	.	.
4a/	-we-	4c#/	4A/	4AA/
4a;/	-sen,	4c#;/	4A;/	4AA;/
=7	=7	=7	=7	=7
4.b\	wenn	8e/L	4.G/	4E\
.	.	8f#/J	.	.
.	.	4g/	.	4E\
8cc#\	er	.	8A/	.
4dd\	e-	4f#/	4B\	8BB/L
.	.	.	.	8C#/J
4dd\	-wig	4f#/	4B\	8D\L
.	.	.	.	8E\J
=8	=8	=8	=8	=8
4.cc#\	soll	4.f#/	4B\	4F#\
.	.	.	4A#/	4F#\
8cc#\	ge-	8e/	.	.
4b\	-ne-	4d/	4B\	4BB/
4b;\	-sen	4d;/	4B;\	4BB;/
=9	=9	=9	=9	=9
4f#/	der	4d/	4A/	4D\
4f#/	so	4d/	4A/	4D\
4b\	gro-	4d/	8G/L	4GG/
.	.	.	8F#/J	.
4a/	-ssen	4c#/	4E/	4AA/
=10	=10	=10	=10	=10
4a/	Herr-	4d/	8D/L	4BB/
.	.	.	8F#/J	.
4g#/	-lich-	4d/	8E/L	4BB/
.	.	.	8D/J	.
2a;/	-keit,	2c#;/	2E;/	2AA;/
=11	=11	=11	=11	=11
4b\	die	4d/	4G/	4GG/
4a/	den	8d/L	4F#/	4D\
.	.	8c#/J	.	.
4g/	From-	8B/L	4G/	4E\
.	.	8c#/J	.	.
4f#/	-men	4d/	4A/	4F#\
=12	=12	=12	=12	=12
4.e/	ist	4d/	4B\	8G\L
.	.	.	.	8E\J
.	.	4c#/	8.A/L	8A\L
8d/	be-	.	.	8AA\J
.	.	.	16G/Jk	.
2d;/	-reit'.	2d;/	2F#;/	2D;\
==|!	==|!	==|!	==|!	==|!
*-	*-	*-	*-	*-
!!!RWG: Key is interpreted using the Humdrum key tool.
!!!END: 1994/05/03/
!!!KEY: 3369849506
!!!EMD: Converted from MuseData to Humdrum Dec 19, 2000, by Andreas Kornstaedt using muse2kern.
